X: 804
T: Puncheon Floor
C:Traditional Old-Time Dance
B: jims roots
M:2/4
L:1/4
Q: 1/4=100
K:G
V:1 
%N:TablEdited by Wendy Anthony
xD |: "G"G/F/G/A/ B/A/B/c/ | dg dB/c/ | dg dg | dg dB/A/ |
"G"G/F/G/A/ B/A/B/c/ | dg dB/c/ | dd "D"c/B/A |[1 "G"G2 [GB,]D:| [2 "G"G2 [GB,] f/g/||
"D"af "A"g/f/e | "D"fd "A"ez/e/ | "D"df "A"e/d/c |[1 "D"d2 [dF]f/g/:|[2 "D"d=c BA||
V:K:D 
|: "D"af "A"g/f/e | "D"fd "A"ez/e/g/ | "D"fd "A"ee/e/ | "D"f/e/d "A"ef/g/ |
% abcbook-tune_id 6298c27904c2ff20f8e4228a


% abcbook-boost 0
% abcbook-tablature 
% abcbook-transpose 
% abcbook-lastupdated 1654178426680
% abcbook-soundfonts 
% abcbook-repeats 1


